X: 33
T: Missa Ecce ancilla domini / Kyrie
N: Derived from Ock1006a-Missa_Ecce_ancilla_domini-Kyrie.krn
C: Johannes Ockeghem
%%abc-version 2.0
%%abcx-abcm2ps-target-version 5.9.1 (29 Sep 2008)
%%abc-creator hum2abc beta
%%abcx-conversion-date 2019/02/17 07:26:14
%%abc-edited-by Jesse Rodin
%%abc-edited-by Will Watson 15/04/2012
%%abcx-initial-encoding-date 2015/12/06/
%%humdrum-veritas 919127193
%%humdrum-veritas-data 4143245862
%%linebreak <none>
%%barnumbers 0
L: 1/4
M: 3/1
Q: 1/2=120
%%staves [1 2 3 4]
V: 1 clef=treble
V: 2 clef=treble-8
V: 3 clef=treble-8
V: 4 clef=bass
K: C
[V:1] G12 | 
[V:2] G6A2B4 | 
[V:3] z12 | 
[V:4] z12 | 
[V:1] G6A2G2A2- | 
[V:2] c12- | 
[V:3] z12 | 
[V:4] z12 | 
[V:1] AGE4A3GA2- | 
[V:2] c12 | 
[V:3] z12 | 
[V:4] z12 | 
[V:1] AGE2D2F2E4 | 
[V:2] B2c2d2d4^c2 | 
[V:3] z12 | 
[V:4] z12 | 
[V:1] D4z4G4 | 
[V:2] d8B4 | 
[V:3] z12 | 
[V:4] z12 | 
[V:1] A4B6AB | 
[V:2] c4d6cB | 
[V:3] z12 | 
[V:4] z12 | 
[V:1] c2B2G3AF2E2 | 
[V:2] A2G2B4A2c2 | 
[V:3] z12 | 
[V:4] z12 | 
[V:1] D2G2A2B2c3B | 
[V:2] d2e2z2d2e2c2- | 
[V:3] z12 | 
[V:4] z12 | 
[V:1] G2A2_B2A4G2 | 
[V:2] c2BAG2A2_B4 | 
[V:3] z12 | 
[V:4] z12 | 
[V:1] A8z4 | 
[V:2] A12 | 
[V:3] z12 | 
[V:4] z12 | 
[V:1] F6G2A4 | 
[V:2] D6E2F4 | 
[V:3] d12- | 
[V:4] z12 | 
[V:1] _B4A2A4F2 | 
[V:2] G4D4z2D2 | 
[V:3] d12 | 
[V:4] z12 | 
[V:1] E4D2G2F2A2 | 
[V:2] E3FG2E2D4 | 
[V:3] c4B4d4- | 
[V:4] z12 | 
[V:1] G2A4G2F2D2 | 
[V:2] G2D2F2G3AB2 | 
[V:3] d4d8 | 
[V:4] z12 | 
[V:1] C4D2F2E4 | 
[V:2] A4B2d2A4 | 
[V:3] e4d2B2c4 | 
[V:4] z12 | 
[V:1] D4z4z4 | 
[V:2] z2_B4AG[M:3/1](3F2G2E2 | 
[V:3] d4d8 | 
[V:4] z12 | 
[V:1] B,3CD4E4 | 
[V:2] [M:3/1]G3AB4c4 | 
[V:3] G12- | 
[V:4] G,,8C,4 | 
[V:1] D2C2E2D4C2 | 
[V:2] z2c4B2G4 | 
[V:3] G8z4 | 
[V:4] B,,2C,4D,2E,4 | 
[V:1] D2F2G2A4F2 | 
[V:2] A4_B2A2F4 | 
[V:3] F8A4 | 
[V:4] D,12 | 
[V:1] E2F2G2F2D2F2- | 
[V:2] G2A2z2A2G2A2- | 
[V:3] c8B2c2 | 
[V:4] C,2F,2E,2F,2G,2F,2 | 
[V:1] FGA8G2 | 
[V:2] A2F4D2G4 | 
[V:3] d2c2A4B4 | 
[V:4] D,4z4G,,4 | 
[V:1] A8G2c2- | 
[V:2] z2d2c3de4 | 
[V:3] A4z2c3BAG | 
[V:4] D,4F,3E,C,4 | 
[V:1] cBA2BGG2^FF2E | 
[V:2] A2F2E4F4 | 
[V:3] d2cBG2B2A4 | 
[V:4] F,4G,4D,4 | 
[V:1] G12 ||  
[V:2] z2_B,4C2D4 ||  
[V:3] G12 ||  
[V:4] G,,12 ||  
[V:1]  [K:C] [K:clef=treble][M:2/1]G8- | 
[V:2]  [K:C] [K:clef=treble-8][M:2/1]G8 | 
[V:3]  [K:C] [K:clef=treble-8][M:2/1]z8 | 
[V:4]  [K:C] [K:clef=bass][M:2/1]z8 | 
[V:1] G4A4- | 
[V:2] c8- | 
[V:3] z8 | 
[V:4] z8 | 
[V:1] A2GFE4- | 
[V:2] c8- | 
[V:3] z8 | 
[V:4] z8 | 
[V:1] E2DCG4 | 
[V:2] c8- | 
[V:3] z8 | 
[V:4] z8 | 
[V:1] A4G4- | 
[V:2] c8 | 
[V:3] z8 | 
[V:4] z8 | 
[V:1] G4c4- | 
[V:2] e4c4 | 
[V:3] z8 | 
[V:4] z8 | 
[V:1] c2BAB4 | 
[V:2] d8 | 
[V:3] z8 | 
[V:4] z8 | 
[V:1] z2E4FG | 
[V:2] c8- | 
[V:3] z8 | 
[V:4] z8 | 
[V:1] A4G2E2 | 
[V:2] c8 | 
[V:3] z8 | 
[V:4] z8 | 
[V:1] F4E4 | 
[V:2] d4c4 | 
[V:3] z8 | 
[V:4] z8 | 
[V:1] F2G4E2 | 
[V:2] A2B2c4 | 
[V:3] z8 | 
[V:4] z8 | 
[V:1] D3B,A,2G,2- | 
[V:2] B2G2A2B2- | 
[V:3] z8 | 
[V:4] z8 | 
[V:1] G,2B,2A,4 | 
[V:2] B2G4^F2 | 
[V:3] z8 | 
[V:4] z8 | 
[V:1] z2G,2A,2B,2 | 
[V:2] G4z2G2 | 
[V:3] z8 | 
[V:4] z8 | 
[V:1] C2D2E3F | 
[V:2] A2B2c3A | 
[V:3] z8 | 
[V:4] z8 | 
[V:1] D2C3DEF | 
[V:2] B2c2A2G2 | 
[V:3] z8 | 
[V:4] z8 | 
[V:1] D2G2F2G2 | 
[V:2] F2G2A2G2 | 
[V:3] z8 | 
[V:4] z8 | 
[V:1] A2G2z2c2 | 
[V:2] c2B2G2A2 | 
[V:3] z8 | 
[V:4] z8 | 
[V:1] B2G2A2B2- | 
[V:2] G2c3B/c/d2 | 
[V:3] z8 | 
[V:4] z8 | 
[V:1] BGG4^F2 | 
[V:2] G2B2A4 | 
[V:3] z8 | 
[V:4] z8 | 
[V:1] G8 | 
[V:2] G8 | 
[V:3] z8 | 
[V:4] z8 | 
[V:1] z4E4 | 
[V:2] B8 | 
[V:3] G8 | 
[V:4] z8 | 
[V:1] F4G4 | 
[V:2] c4d4- | 
[V:3] A4G4 | 
[V:4] z8 | 
[V:1] F2A4G2 | 
[V:2] d2c2A2B2- | 
[V:3] D4D2G2- | 
[V:4] z8 | 
[V:1] E2C2D4 | 
[V:2] B2c2G4 | 
[V:3] G2A2B4 | 
[V:4] z8 | 
[V:1] C8 | 
[V:2] A6F2- | 
[V:3] c4A4 | 
[V:4] z8 | 
[V:1] z8 | 
[V:2] F2D2C4 | 
[V:3] F4G4 | 
[V:4] z8 | 
[V:1] c8 | 
[V:2] z4F4 | 
[V:3] A8 | 
[V:4] z8 | 
[V:1] B4G4 | 
[V:2] G4E4 | 
[V:3] G4c4- | 
[V:4] z8 | 
[V:1] A2A4GF | 
[V:2] F4D4 | 
[V:3] c4B4 | 
[V:4] z8 | 
[V:1] E4G4 | 
[V:2] C8 | 
[V:3] c8- | 
[V:4] z8 | 
[V:1] A4c4- | 
[V:2] F4C4 | 
[V:3] c8 | 
[V:4] z8 | 
[V:1] c4B4 | 
[V:2] G8 | 
[V:3] d8 | 
[V:4] z8 | 
[V:1] c6B2 | 
[V:2] C8 | 
[V:3] c8- | 
[V:4] z8 | 
[V:1] A2G2G4 | 
[V:2] F4E4 | 
[V:3] c8 | 
[V:4] z8 | 
[V:1] z4A4- | 
[V:2] D4F4- | 
[V:3] B4A4 | 
[V:4] z8 | 
[V:1] A2G2E4 | 
[V:2] F2E2C4 | 
[V:3] c6B2 | 
[V:4] z4C,4 | 
[V:1] D4C4 | 
[V:2] D4E4- | 
[V:3] G4A4- | 
[V:4] B,,4A,,4 | 
[V:1] E6D2 | 
[V:2] E4z4 | 
[V:3] A4G4- | 
[V:4] C,6B,,2 | 
[V:1] B,4z2C2 | 
[V:2] D4C4 | 
[V:3] G4F4 | 
[V:4] G,,4A,,4 | 
[V:1] B,2E4D2- | 
[V:2] D2E3FG2 | 
[V:3] G8 | 
[V:4] G,,8 | 
[V:1] D2B,2A,4 | 
[V:2] A2F4EF | 
[V:3] D8 | 
[V:4] z4D,4 | 
[V:1] G,4C4 | 
[V:2] G4C4 | 
[V:3] G6A2 | 
[V:4] E,6F,2 | 
[V:1] D4E4 | 
[V:2] F4G4 | 
[V:3] B4c4 | 
[V:4] D,4C,4 | 
[V:1] F3GA2G2 | 
[V:2] z2F4C2 | 
[V:3] A4F2G2 | 
[V:4] D,6E,2 | 
[V:1] z2F2G2E2 | 
[V:2] c2d2e4 | 
[V:3] A4G2c2- | 
[V:4] F,4C,4 | 
[V:1] F3GA2_B2- | 
[V:2] d4A2G2 | 
[V:3] c2B2c2d2- | 
[V:4] D,4z4 | 
[V:1] B2A4G2 | 
[V:2] F4G4 | 
[V:3] d2c2B4 | 
[V:4] D,4G,,4 | 
[V:1] A6F2 | 
[V:2] z4c2d2 | 
[V:3] A8 | 
[V:4] D,3E,F,4 | 
[V:1] G2E2F2G2- | 
[V:2] e4d4- | 
[V:3] c4B2G2 | 
[V:4] E,2C,2z2G,2- | 
[V:1] G2F2G3F | 
[V:2] d4B2c2 | 
[V:3] A4G4- | 
[V:4] G,F,D,2E,2C,2 | 
[V:1] D2C2F4 | 
[V:2] d2e2dB2A | 
[V:3] G4F4 | 
[V:4] B,,2C,2D,4 | 
[V:1] E4G4 | 
[V:2] c8- | 
[V:3] G4G4 | 
[V:4] C,8 | 
[V:1] F8 | 
[V:2] c8- | 
[V:3] A8 | 
[V:4] [F,,8F,8] | 
[V:1] E8 ||  
[V:2] c8 ||  
[V:3] G8 ||  
[V:4] C,8 ||  
[V:1]  [K:C] [K:clef=treble][M:3/1]G6A2B4 | 
[V:2]  [K:C] [K:clef=treble-8][M:3/1]e12- | 
[V:3]  [K:C] [K:clef=treble-8][M:3/1]z12 | 
[V:4]  [K:C] [K:clef=bass][M:3/1]z12 | 
[V:1] c4B2G2A4 | 
[V:2] e8c2d2 | 
[V:3] z12 | 
[V:4] z12 | 
[V:1] G4A2c2BB2A/G/ | 
[V:2] e4z2e4dc | 
[V:3] z12 | 
[V:4] z12 | 
[V:1] F2A3GG3EF/E/D/C/ | 
[V:2] d3cd2B2A4 | 
[V:3] z12 | 
[V:4] z12 | 
[V:1] B,2F2G2E4D2 | 
[V:2] G2A2E2G2F4 | 
[V:3] z12 | 
[V:4] z12 | 
[V:1] E4z4B4 | 
[V:2] E6F2G4 | 
[V:3] z12 | 
[V:4] z12 | 
[V:1] c4B2A4G2 | 
[V:2] A4G2A3Bc2- | 
[V:3] z12 | 
[V:4] z12 | 
[V:1] A4B6AG | 
[V:2] c2A2G4d4 | 
[V:3] z4z4G4- | 
[V:4] z12 | 
[V:1] G4A2G2c4 | 
[V:2] e4d2B2c4 | 
[V:3] G2E2F2G2A4 | 
[V:4] z12 | 
[V:1] B2A3GG4^F2 | 
[V:2] d4B2G2A4 | 
[V:3] G2F2G4D4 | 
[V:4] z12 | 
[V:1] G6FED4 | 
[V:2] G4c4B4 | 
[V:3] z2E4F2G4 | 
[V:4] z12 | 
[V:1] C3DE2F2E2F2 | 
[V:2] z2c4F2c3d | 
[V:3] A12 | 
[V:4] z12 | 
[V:1] G2C2z2G2A2G2- | 
[V:2] e2f2d4f2e2 | 
[V:3] G2F2G4z2c2 | 
[V:4] z12 | 
[V:1] G2A2G2c4B2 | 
[V:2] d2f2e2c2d4 | 
[V:3] B2A2c4G4 | 
[V:4] z12 | 
[V:1] c6BAG4 | 
[V:2] c3de8 | 
[V:3] z4c8- | 
[V:4] C,12 | 
[V:1] A4c4B3A | 
[V:2] A8G4 | 
[V:3] c8e4- | 
[V:4] F,8G,4 | 
[V:1] A6G4FG | 
[V:2] z4z4G4 | 
[V:3] e4d8 | 
[V:4] A,4_B,8 | 
[V:1] A4z4B4 | 
[V:2] c6B2G4 | 
[V:3] e12- | 
[V:4] A,6G,2E,4 | 
[V:1] G4A6B2 | 
[V:2] B4d2cBA4 | 
[V:3] e4d2d4c2 | 
[V:4] G,4F,8 | 
[V:1] c2B2G2A4F2 | 
[V:2] G4E2D2F4 | 
[V:3] e4z2A4B2 | 
[V:4] E,4G,2F,2D,4 | 
[V:1] E2A3GG2A2c2 | 
[V:2] G2A2c4A2G2- | 
[V:3] c3de8 | 
[V:4] C,12 | 
[V:1] B4G2A4F2 | 
[V:2] G2D2G2C2D4 | 
[V:3] d4B2c2A4 | 
[V:4] G,,4z4z4 | 
[V:1] G2E4C2D2F2 | 
[V:2] E2C2G2A4B2 | 
[V:3] z12 | 
[V:4] G,4E,2F,2D,4 | 
[V:1] E4z2C2D3C | 
[V:2] c4A2G2F2A2- | 
[V:3] c8B2A2 | 
[V:4] C,4F,2E,2D,2F,2- | 
[V:1] E4z4G4 | 
[V:2] AGE2D2C2c4 | 
[V:3] c3BG8 | 
[V:4] F,E,C,2B,,2C,4E,2 | 
[V:1] F3EG3FD4 | 
[V:2] d6B2B4 | 
[V:3] A4G8- | 
[V:4] D,4G,,8 | 
[V:1] E4C4z2F2- | 
[V:2] c4z4A4 | 
[V:3] G8F4- | 
[V:4] C,8D,4- | 
[V:1] F2D2E2D2G4 | 
[V:2] B4c2d2B4 | 
[V:3] F4G3FE2D2- | 
[V:4] D,4C,2B,,2G,,4 | 
[V:1] F3GA2_B4AG | 
[V:2] A4z2D4E2 | 
[V:3] D2d2c2d4cB | 
[V:4] D,3E,F,2_B,,4C,2 | 
[V:1] F2E2D2G4^F2 | 
[V:2] F2GA2Bc2d4 | 
[V:3] A2c2B2G2A4 | 
[V:4] D,2C,2D,2E,2D,4 | 
[V:1] G12 |]  
[V:2] d12 |]  
[V:3] G12 |]  
[V:4] G,,12 |]  



